svgs/sharp-duotone-light/card-diamond.svg

<svg xmlns="http://www.w3.org/2000/svg" viewBox="0 0 384 512"><!--! Font Awesome Pro 7.1.0 by @fontawesome - https://fontawesome.com License - https://fontawesome.com/license (Commercial License) Copyright 2025 Fonticons, Inc. --><path opacity=".4" fill="currentColor" d="M32 32l320 0 0 448-320 0 0-448zM73.4 256l11.3 11.3 96 96 11.3 11.3 11.3-11.3 96-96 11.3-11.3-11.3-11.3-96-96-11.3-11.3-11.3 11.3-96 96-11.3 11.3z"/><path fill="currentColor" d="M32 32l0 448 320 0 0-448-320 0zM0 0L384 0 384 512 0 512 0 0zM203.3 148.7l96 96 11.3 11.3-11.3 11.3-96 96-11.3 11.3-11.3-11.3-96-96-11.3-11.3 11.3-11.3 96-96 11.3-11.3 11.3 11.3zM192 329.4L265.4 256 192 182.6 118.6 256 192 329.4z"/></svg>

<svg xmlns="http://www.w3.org/2000/svg" viewBox="0 0 384 512"><!--! Font Awesome Pro 6.7.2 by @fontawesome - https://fontawesome.com License - https://fontawesome.com/license (Commercial License) Copyright 2024 Fonticons, Inc. --><defs><style>.fa-secondary{opacity:.4}</style></defs><path class="fa-secondary" d="M32 32l320 0 0 448L32 480 32 32zM73.4 256l11.3 11.3 96 96L192 374.6l11.3-11.3 96-96L310.6 256l-11.3-11.3-96-96L192 137.4l-11.3 11.3-96 96L73.4 256z"/><path class="fa-primary" d="M32 32l0 448 320 0 0-448L32 32zM0 0L32 0 352 0l32 0 0 32 0 448 0 32-32 0L32 512 0 512l0-32L0 32 0 0zM203.3 148.7l96 96L310.6 256l-11.3 11.3-96 96L192 374.6l-11.3-11.3-96-96L73.4 256l11.3-11.3 96-96L192 137.4l11.3 11.3zM192 329.4L265.4 256 192 182.6 118.6 256 192 329.4z"/></svg>
